X:840
T:Expert Dancer, The 
C:Joe Buchanan's Scottish Tome - Page 406.3
I:406 3
R:Strathspey
Z:Carl Allison
L:1/8
M:4/4
K:F
c | "F"(A<F)F>A (c>A)A>c | "F"A>fd<f c<f A>c | "F"(A<F)F>A (c<A)A>c | "Gm"B<GG>A "C7"B2 B>c |
"F"(A<F)F>A (c>A)A>c | "F"A>fd<f c<f A>c | "F"a>f"C7"(e<g) "F"f>c A<F | "C7"E<CD>E (F2 "F"F) |]
c | "F"A>f "C"e>g "F"f>a "C"e>g | "Bb"f>ed<f "F"c<f A>f | "F"A>f "C"e<g "F"f<a f>A | "Gm"(B<G)G>A "C7"B2 B>c |
"F"A>f "C"e>g "F"f>a "C"e>g | "Bb"f>ed<f "F"c<f A>f | "C7"b>g(e<c) "F"f>c (A<F) | "C7"E<CD>E (F2 "F"F) |]

